X:1707
T:Lucy Campbell
P:Hon. Mrs Campbell (of Lochnell)
C:R. Mackintosh
R:Reel (8x32)
B:RSCDS 17-7
Z:Anselm Lingnau <anselm@strathspey.org>
M:2/2
L:1/8
K:C
G|"C"c2Gc ECGE|c2ec dDDB|"F"c2AF "C"EGCE|"G7"FDG,G "C"ECCG|
  "C"c2Gc ECGE|c2ec dDDB|"F"c2AF "C"GcEc|"G7"defd "C"ecc||
G|"C"ECEG "F"AFAC|"Am"ECFE "G"DG,G,F|"C"ECEG "F"AFAc|"G"BdGf "C"eccG|
  "C"ECEG "F"AFAC|"Am"ECFE "G"DG,G,F|"C"EG"Dm"FA "Em"GB"F"Ac|"G"Bagf "C"ecc|]

